src/lib/packages/icons/src/assets/line/upload-alt.svg

<svg width="24" height="24" viewBox="0 0 24 24" fill="none" xmlns="http://www.w3.org/2000/svg">
<path d="M19.414 21.75H5.41502C5.00102 21.75 4.66502 21.414 4.66502 21C4.66502 20.586 5.00102 20.25 5.41502 20.25H19.414C19.828 20.25 20.164 20.586 20.164 21C20.164 21.414 19.828 21.75 19.414 21.75ZM17.3349 16V11.75H19.008C19.726 11.75 20.36 11.319 20.625 10.653C20.89 9.986 20.7239 9.23796 20.2019 8.74595L13.928 2.81798C13.127 2.06198 11.873 2.06198 11.073 2.81798L4.79905 8.74595C4.27805 9.23796 4.11095 9.98698 4.37595 10.654C4.64195 11.321 5.2749 11.751 5.9929 11.751H7.83592V16C7.83592 16.965 8.62091 17.75 9.58592 17.75H15.5859C16.5499 17.75 17.3349 16.965 17.3349 16ZM5.99192 10.25C5.85692 10.25 5.79702 10.168 5.76902 10.099C5.74202 10.03 5.72888 9.92898 5.82688 9.83598L12.1011 3.908C12.3261 3.697 12.6729 3.697 12.8979 3.908L19.1721 9.83598C19.2701 9.92798 19.257 10.03 19.23 10.099C19.203 10.168 19.1421 10.25 19.0071 10.25H16.584C16.385 10.25 16.1939 10.329 16.0539 10.47C15.9139 10.611 15.834 10.801 15.834 11V16C15.834 16.138 15.722 16.25 15.584 16.25H9.58396C9.44596 16.25 9.33396 16.138 9.33396 16V11C9.33396 10.801 9.25499 10.61 9.11399 10.47C8.97299 10.329 8.78296 10.25 8.58396 10.25H5.99192Z" fill="currentColor"/>
</svg>

<svg xmlns="http://www.w3.org/2000/svg" width="24" height="24" fill="none"><path fill="currentColor" d="M19.414 21.75H5.415a.75.75 0 0 1 0-1.5h13.999a.75.75 0 0 1 0 1.5ZM17.334 16v-4.25h1.674c.718 0 1.352-.431 1.617-1.097a1.729 1.729 0 0 0-.423-1.907l-6.274-5.928a2.08 2.08 0 0 0-2.855 0L4.799 8.746a1.732 1.732 0 0 0-.423 1.908 1.73 1.73 0 0 0 1.617 1.097h1.843V16c0 .965.785 1.75 1.75 1.75h6c.964 0 1.749-.785 1.749-1.75ZM5.993 10.25a.225.225 0 0 1-.223-.151.225.225 0 0 1 .058-.263L12.1 3.908a.58.58 0 0 1 .797 0l6.274 5.928a.225.225 0 0 1 .058.263.224.224 0 0 1-.223.151h-2.423a.747.747 0 0 0-.75.75v5a.25.25 0 0 1-.25.25h-6a.25.25 0 0 1-.25-.25v-5a.749.749 0 0 0-.75-.75H5.992Z"/></svg>
